X: 1896
T: Urfalıyam Ezelden
C: Muzaffer Sarısözen
O: Turkey
F: http://compmusic.upf.edu/node/140
N: ussak--turku--nimsofyan--urfaliyam_ezelden--
N: makam= ussak
N: form= turku
N: usul= nimsofyan = 2/4
M: 2/4
L: 1/16
K: C _2/4B   
Q: 1/4=72
%%MIDI tuningsystem comma53
z2cd dd3  | d{e}c{e}d2 decd  | B2c2 BAd2  | \
w:  Ur fa lı yam   |  e *  *  *  *  zel *  den    |  Ur fa lı yam   | 
d3z decd  | 
w:  e zel *  den    | 
B2c2 BAd2  | d{e}c2B c{d}BBA  | A2B{c}A AGc2  | \
w:  Göy nüm  geç *  mez   |  gü *  *  *  zel *  *  den    |  Göy nüm  *  *  geç *  mez   | 
d{e}c2B cBBA  | 
w:  gü *  *  *  zel *  den   | 
A3A AGA2  | z2ee e2ed  | d{e}c{e}d2 decd  | \
w:  vay   *  SAZ  |  Göy nü mün  gö  |  zü  *  *  *  *  çık *  sın    | 
B2c2 BAd2  | 
w:  Göy nü mün  *  gö  | 
d3z decd  | B2c2 BAd2  | d{e}c2B c{d}BBA  | \
w:  zü  çık *  sın    |  Sev me sey *  dim   |  e *  *  *  zel *  *  den    | 
A2B{c}A AGc2  | 
w:  Sev me *  *  sey *  dim   | 
d{e}c2B cBBA  | A3A AGA2  | z2cd dd3  | \
w:  e *  *  *  zel *  den   |  vay   *  SAZ  |  A ğam  o la  | 
d{e}c{e}d2 d{e}d{e}cd  | 
w:  san  *  *  *  *  Ö *  mer    | 
B2c2 BAd2  | d3z d{e}d{e}cd  | B2c{d}B BAd2  | \
w:  Pa şam  o la  |  san  Ö *  mer    |  Ye tim  *  *  ka la  | 
d{e}c2B c{d}c{d}BA  | 
w:  san  *  *  *  Ö *  mer    | 
A2B{c}A AGc2  | d{e}c2B cBBA  | A3A AGA2  | \
w:  Be nim  *  *  o *  la  |  san  *  *  *  Ö *  mer   |  vay   *  SAZ  | 
z2cd dd3  | 
w:  Ur fa lı yam   | 
d{e}c{e}d2 decd  | B2c2 BAd2  | d3z decd  | \
w:  e *  *  *  *  zel *  den    |  Ur fa lı yam   |  e zel *  den    | 
B2c2 BAd2  | 
w:  Göy nüm  geç *  mez   | 
d{e}c2B c{d}BBA  | A2B{c}A AGc2  | d{e}c2B cBBA  | \
w:  gü *  *  *  zel *  *  den    |  Göy nüm  *  *  geç *  mez   |  gü *  *  *  zel *  den   | 
A3A AGA2  | 
w:  vay   *  SAZ  | 
z2ee e2ed  | d{e}c{e}d2 decd  | B2c2 BAd2  | \
w:  Göy nü mün  gö  |  zü  *  *  *  *  çık *  sın    |  Göy nü mün  *  gö  | 
d3z decd  | 
w:  zü  çık *  sın    | 
B2c2 BAd2  | d{e}c2B c{d}BBA  | A2B{c}A AGc2  | \
w:  Sev me sey *  dim   |  e *  *  *  zel *  *  den    |  Sev me *  *  sey *  dim   | 
d{e}c2B cBBA  | 
w:  e *  *  *  zel *  den   | 
A3A AGA2  | z2cd dd3  | d{e}c{e}d2 d{e}d{e}cd  | \
w:  vay   *  SAZ  |  A ğam  o la  |  san  *  *  *  *  Ö *  mer    | 
B2c2 BAd2  | 
w:  Pa şam  o la  | 
d3z d{e}d{e}cd  | B2c{d}B BAd2  | d{e}c2B c{d}c{d}BA  | \
w:  san  Ö *  mer    |  Ye tim  *  *  ka la  |  san  *  *  *  Ö *  mer    | 
A2B{c}A AGc2  | 
w:  Be nim  *  *  o *  la  | 
d{e}c2B cBBA  | A3A AGA2  | |


